X:143
T:The Golden Stud
Z:Jack Campin, http://www.campin.me.uk/
F:Jack Campin's Nine-Note Tunebook
% last edit 07-03-2013
M:C|
L:1/8
Q:1/2=92
K:EMin
ED|E2EG F2FA|G2GB ABcA|BAGB AGFA|G2GE FED2|
   E2EG F2FA|G2GB ABcA|BAGB AGFA|GEFD E2 :|
AB|c2AB cBA2|B2GA BAG2|A2FG AGFA|GEFD EFGB|
   c2AB cBA2|B2GA BAG2|A2FG AGFA|GEFD E2 :|

